source/media/icon/ps.svg

<?xml version="1.0" encoding="UTF-8" standalone="no"?>
<svg
   data-name="Layer 1"
   id="Layer_1"
   viewBox="0 0 512 512"
   version="1.1"
   sodipodi:docname="ps.svg"
   inkscape:version="1.1.2 (0a00cf5, 2022-02-04)"
   xmlns:inkscape="http://www.inkscape.org/namespaces/inkscape"
   xmlns:sodipodi="http://sodipodi.sourceforge.net/DTD/sodipodi-0.dtd"
   xmlns="http://www.w3.org/2000/svg"
   xmlns:svg="http://www.w3.org/2000/svg">
  <sodipodi:namedview
     id="namedview1170"
     pagecolor="#ffffff"
     bordercolor="#999999"
     borderopacity="1"
     inkscape:pageshadow="0"
     inkscape:pageopacity="0"
     inkscape:pagecheckerboard="0"
     showgrid="false"
     inkscape:zoom="0.91012377"
     inkscape:cx="184.59028"
     inkscape:cy="250.51538"
     inkscape:window-width="1920"
     inkscape:window-height="1016"
     inkscape:window-x="0"
     inkscape:window-y="28"
     inkscape:window-maximized="1"
     inkscape:current-layer="Layer_1" />
  <defs
     id="defs1159">
    <style
       id="style1157">.cls-1{fill:#001d23;}.cls-2{fill:#01c8fe;}</style>
  </defs>
  <path
     id="rect1161"
     style="display:inline;fill:#000000"
     class="cls-1"
     d="M 136.06055 46.419922 C 82.843305 46.419922 40 89.263229 40 142.48047 L 40 369.5293 C 40 422.74654 82.843305 465.58984 136.06055 465.58984 L 375.93945 465.58984 C 429.15669 465.58984 472 422.74654 472 369.5293 L 472 142.48047 C 472 89.263229 429.15669 46.419922 375.93945 46.419922 L 136.06055 46.419922 z M 199.23047 163.94922 C 250.54047 163.94922 268.33008 192.39984 268.33008 220.08984 C 268.33008 261.24984 236.56922 278.76953 197.44922 278.76953 L 183 278.76953 L 183 328.76953 C 183 330.03953 182.49 330.76953 181 330.76953 L 149.68945 330.76953 C 148.41945 330.76953 147.91992 330.00953 147.91992 328.76953 L 147.91992 166.71094 C 147.91992 165.18094 148.16945 164.71094 149.43945 164.71094 C 159.85945 164.46094 179.92047 163.94922 199.23047 163.94922 z M 200.30078 194.65039 C 192.17078 194.65039 185.29953 194.90016 183.01953 195.16016 L 183 247.49023 C 187.32 247.74023 190.11047 247.74023 197.23047 247.74023 C 217.30047 247.74023 233.30078 241.64055 233.30078 220.81055 C 233.30078 204.81055 222.38078 194.65039 200.30078 194.65039 z M 334.03906 201.98047 C 349.03906 201.98047 360.71906 203.98055 367.03906 207.06055 A 3.25 3.25 0 0 1 368.81055 210.35938 L 368.81055 235.75977 C 368.81055 237.28977 367.80953 238.29906 366.26953 237.53906 C 357.99953 233.25906 344.99961 230.21094 333.59961 230.21094 C 321.65961 230.21094 317.84961 234.52961 317.84961 238.84961 C 317.84961 243.16961 321.15961 246.47055 335.84961 252.06055 C 366.58961 263.24055 376.24023 275.18094 376.24023 293.21094 C 376.24023 317.35094 357.44016 333.34961 323.91016 333.34961 C 308.42016 333.34961 294.91008 330.55023 287.08008 326.24023 A 3 3 0 0 1 285.30078 323.43945 L 285.30078 296 C 285.30078 294.47 286.30078 293.7107 287.30078 294.4707 C 298.99078 301.8407 313.21062 304.63086 324.64062 304.63086 C 336.58062 304.63086 341.91992 301.33 341.91992 296 C 341.91992 291.17 337.59938 287.61 322.60938 282 C 293.90938 271.33 284.50977 259.12984 284.50977 240.83984 C 284.50977 221.02984 300.50906 201.98047 334.03906 201.98047 z " />
</svg>

<?xml version="1.0" encoding="UTF-8" standalone="no"?>
<svg
   data-name="Layer 1"
   id="Layer_1"
   viewBox="0 0 512 512"
   version="1.1"
   sodipodi:docname="ps.svg"
   inkscape:version="1.1.2 (0a00cf5, 2022-02-04)"
   xmlns:inkscape="http://www.inkscape.org/namespaces/inkscape"
   xmlns:sodipodi="http://sodipodi.sourceforge.net/DTD/sodipodi-0.dtd"
   xmlns="http://www.w3.org/2000/svg"
   xmlns:svg="http://www.w3.org/2000/svg">
  <sodipodi:namedview
     id="namedview1170"
     pagecolor="#ffffff"
     bordercolor="#999999"
     borderopacity="1"
     inkscape:pageshadow="0"
     inkscape:pageopacity="0"
     inkscape:pagecheckerboard="0"
     showgrid="false"
     inkscape:zoom="0.91012377"
     inkscape:cx="183.49153"
     inkscape:cy="250.51538"
     inkscape:window-width="1920"
     inkscape:window-height="1016"
     inkscape:window-x="0"
     inkscape:window-y="28"
     inkscape:window-maximized="1"
     inkscape:current-layer="Layer_1" />
  <defs
     id="defs1159">
    <style
       id="style1157">.cls-1{fill:#001d23;}.cls-2{fill:#01c8fe;}</style>
  </defs>
  <rect
     class="cls-1"
     height="419.17"
     rx="96.06"
     width="432"
     x="40"
     y="46.42"
     id="rect1161"
     style="fill:#000000" />
  <rect
     class="cls-1"
     height="379.17"
     rx="76.06"
     width="392"
     x="60"
     y="66.42"
     id="rect1163"
     style="fill:#000000" />
  <path
     class="cls-2"
     d="M147.92,166.71c0-1.53.25-2,1.52-2,10.42-.25,30.48-.76,49.79-.76,51.31,0,69.1,28.45,69.1,56.14,0,41.16-31.76,58.68-70.88,58.68H183v50c0,1.27-.51,2-2,2H149.69c-1.27,0-1.77-.76-1.77-2ZM183,247.49c4.32.25,7.11.25,14.23.25,20.07,0,36.07-6.1,36.07-26.93,0-16-10.92-26.16-33-26.16-8.13,0-15,.25-17.28.51Z"
     id="path1165"
     style="fill:#ffffff" />
  <path
     class="cls-2"
     d="M333.6,230.21c-11.94,0-15.75,4.32-15.75,8.64s3.31,7.62,18,13.21c30.74,11.18,40.39,23.12,40.39,41.15,0,24.14-18.8,40.14-52.33,40.14-15.49,0-29-2.8-36.83-7.11a3,3,0,0,1-1.78-2.8V296c0-1.53,1-2.29,2-1.53,11.69,7.37,25.91,10.16,37.34,10.16,11.94,0,17.28-3.3,17.28-8.63,0-4.83-4.32-8.39-19.31-14-28.7-10.67-38.1-22.87-38.1-41.16,0-19.81,16-38.86,49.53-38.86,15,0,26.68,2,33,5.08a3.25,3.25,0,0,1,1.77,3.3v25.4c0,1.53-1,2.54-2.54,1.78C358,233.26,345,230.21,333.6,230.21Z"
     id="path1167"
     style="fill:#ffffff" />
</svg>
